icons/svg/shields/h_topo_viewpoint_shield.svg

<?xml version="1.0" encoding="UTF-8" standalone="no"?>
<!-- Created with Inkscape (http://www.inkscape.org/) -->

<svg
   xmlns:dc="http://purl.org/dc/elements/1.1/"
   xmlns:cc="http://creativecommons.org/ns#"
   xmlns:rdf="http://www.w3.org/1999/02/22-rdf-syntax-ns#"
   xmlns:svg="http://www.w3.org/2000/svg"
   xmlns="http://www.w3.org/2000/svg"
   xmlns:sodipodi="http://sodipodi.sourceforge.net/DTD/sodipodi-0.dtd"
   xmlns:inkscape="http://www.inkscape.org/namespaces/inkscape"
   version="1.0"
   width="16"
   height="16"
   id="svg2"
   sodipodi:version="0.32"
   inkscape:version="0.91 r13725"
   sodipodi:docname="h_topo_viewpoint_shield.svg"
   inkscape:output_extension="org.inkscape.output.svg.inkscape">
  <metadata
     id="metadata10">
    <rdf:RDF>
      <cc:Work
         rdf:about="">
        <dc:format>image/svg+xml</dc:format>
        <dc:type
           rdf:resource="http://purl.org/dc/dcmitype/StillImage" />
        <cc:license
           rdf:resource="http://web.resource.org/cc/PublicDomain" />
        <dc:language>en</dc:language>
        <dc:title />
      </cc:Work>
    </rdf:RDF>
  </metadata>
  <sodipodi:namedview
     inkscape:window-height="1006"
     inkscape:window-width="1920"
     inkscape:pageshadow="2"
     inkscape:pageopacity="0.0"
     guidetolerance="10.0"
     gridtolerance="10.0"
     objecttolerance="10.0"
     borderopacity="1.0"
     bordercolor="#666666"
     pagecolor="#ffffff"
     id="base"
     showgrid="false"
     inkscape:zoom="32"
     inkscape:cx="6.3866272"
     inkscape:cy="9.801535"
     inkscape:window-x="1920"
     inkscape:window-y="0"
     inkscape:current-layer="svg2"
     inkscape:window-maximized="1"
     showguides="true"
     inkscape:guide-bbox="true" />
  <defs
     id="defs4">
    <inkscape:perspective
       sodipodi:type="inkscape:persp3d"
       inkscape:vp_x="0 : 290 : 1"
       inkscape:vp_y="0 : 1000 : 0"
       inkscape:vp_z="580 : 290 : 1"
       inkscape:persp3d-origin="290 : 193.33333 : 1"
       id="perspective12" />
    <style
       type="text/css"
       id="style6">
   
    .fil0 {fill:#EF7900}
   
  </style>
    <inkscape:perspective
       id="perspective6807"
       inkscape:persp3d-origin="29.116032 : 19.410688 : 1"
       inkscape:vp_z="58.232063 : 29.116032 : 1"
       inkscape:vp_y="0 : 1000 : 0"
       inkscape:vp_x="0 : 29.116032 : 1"
       sodipodi:type="inkscape:persp3d" />
    <inkscape:perspective
       id="perspective6954"
       inkscape:persp3d-origin="290 : 193.33333 : 1"
       inkscape:vp_z="580 : 290 : 1"
       inkscape:vp_y="0 : 1000 : 0"
       inkscape:vp_x="0 : 290 : 1"
       sodipodi:type="inkscape:persp3d" />
    <inkscape:perspective
       id="perspective2541"
       inkscape:persp3d-origin="240 : 160 : 1"
       inkscape:vp_z="480 : 240 : 1"
       inkscape:vp_y="0 : 1000 : 0"
       inkscape:vp_x="0 : 240 : 1"
       sodipodi:type="inkscape:persp3d" />
    <inkscape:perspective
       id="perspective2750"
       inkscape:persp3d-origin="215 : 143.33333 : 1"
       inkscape:vp_z="430 : 215 : 1"
       inkscape:vp_y="0 : 1000 : 0"
       inkscape:vp_x="0 : 215 : 1"
       sodipodi:type="inkscape:persp3d" />
    <inkscape:perspective
       id="perspective3730"
       inkscape:persp3d-origin="88.929146 : 101.19778 : 1"
       inkscape:vp_z="177.85829 : 151.79668 : 1"
       inkscape:vp_y="0 : 1000 : 0"
       inkscape:vp_x="0 : 151.79668 : 1"
       sodipodi:type="inkscape:persp3d" />
    <marker
       inkscape:stockid="TriangleInM"
       orient="auto"
       refY="0"
       refX="0"
       id="TriangleInM-3"
       style="overflow:visible"
       inkscape:isstock="true">
      <path
         inkscape:connector-curvature="0"
         id="path4303-6"
         d="m 5.77,0 -8.65,5 0,-10 8.65,5 z"
         style="fill:#ffffff;fill-opacity:1;fill-rule:evenodd;stroke:#ffffff;stroke-width:1pt;stroke-opacity:1"
         transform="scale(-0.4,-0.4)" />
    </marker>
    <marker
       inkscape:stockid="TriangleOutM"
       orient="auto"
       refY="0"
       refX="0"
       id="TriangleOutM-7"
       style="overflow:visible"
       inkscape:isstock="true">
      <path
         inkscape:connector-curvature="0"
         id="path4312-5"
         d="m 5.77,0 -8.65,5 0,-10 8.65,5 z"
         style="fill:#ffffff;fill-opacity:1;fill-rule:evenodd;stroke:#ffffff;stroke-width:1pt;stroke-opacity:1"
         transform="scale(0.4,0.4)" />
    </marker>
    <marker
       inkscape:stockid="TriangleInM"
       orient="auto"
       refY="0"
       refX="0"
       id="TriangleInM"
       style="overflow:visible"
       inkscape:isstock="true">
      <path
         inkscape:connector-curvature="0"
         id="path4303"
         d="m 5.77,0 -8.65,5 0,-10 8.65,5 z"
         style="fill:#ffffff;fill-opacity:1;fill-rule:evenodd;stroke:#ffffff;stroke-width:1pt;stroke-opacity:1"
         transform="scale(-0.4,-0.4)" />
    </marker>
    <marker
       inkscape:stockid="TriangleOutM"
       orient="auto"
       refY="0"
       refX="0"
       id="TriangleOutM"
       style="overflow:visible"
       inkscape:isstock="true">
      <path
         inkscape:connector-curvature="0"
         id="path4312"
         d="m 5.77,0 -8.65,5 0,-10 8.65,5 z"
         style="fill:#ffffff;fill-opacity:1;fill-rule:evenodd;stroke:#ffffff;stroke-width:1pt;stroke-opacity:1"
         transform="scale(0.4,0.4)" />
    </marker>
    <marker
       inkscape:stockid="TriangleInM"
       orient="auto"
       refY="0"
       refX="0"
       id="TriangleInM-3-3"
       style="overflow:visible"
       inkscape:isstock="true">
      <path
         inkscape:connector-curvature="0"
         id="path4303-6-6"
         d="m 5.77,0 -8.65,5 0,-10 8.65,5 z"
         style="fill:#ffffff;fill-opacity:1;fill-rule:evenodd;stroke:#ffffff;stroke-width:1pt;stroke-opacity:1"
         transform="scale(-0.4,-0.4)" />
    </marker>
    <marker
       inkscape:stockid="TriangleOutM"
       orient="auto"
       refY="0"
       refX="0"
       id="TriangleOutM-7-7"
       style="overflow:visible"
       inkscape:isstock="true">
      <path
         inkscape:connector-curvature="0"
         id="path4312-5-5"
         d="m 5.77,0 -8.65,5 0,-10 8.65,5 z"
         style="fill:#ffffff;fill-opacity:1;fill-rule:evenodd;stroke:#ffffff;stroke-width:1pt;stroke-opacity:1"
         transform="scale(0.4,0.4)" />
    </marker>
    <marker
       inkscape:stockid="TriangleInM"
       orient="auto"
       refY="0"
       refX="0"
       id="TriangleInM-3-5"
       style="overflow:visible"
       inkscape:isstock="true">
      <path
         inkscape:connector-curvature="0"
         id="path4303-6-62"
         d="m 5.77,0 -8.65,5 0,-10 8.65,5 z"
         style="fill:#ffffff;fill-opacity:1;fill-rule:evenodd;stroke:#ffffff;stroke-width:1pt;stroke-opacity:1"
         transform="scale(-0.4,-0.4)" />
    </marker>
    <marker
       inkscape:stockid="TriangleOutM"
       orient="auto"
       refY="0"
       refX="0"
       id="TriangleOutM-7-9"
       style="overflow:visible"
       inkscape:isstock="true">
      <path
         inkscape:connector-curvature="0"
         id="path4312-5-1"
         d="m 5.77,0 -8.65,5 0,-10 8.65,5 z"
         style="fill:#ffffff;fill-opacity:1;fill-rule:evenodd;stroke:#ffffff;stroke-width:1pt;stroke-opacity:1"
         transform="scale(0.4,0.4)" />
    </marker>
    <marker
       inkscape:stockid="TriangleInM"
       orient="auto"
       refY="0"
       refX="0"
       id="TriangleInM-3-0"
       style="overflow:visible"
       inkscape:isstock="true">
      <path
         inkscape:connector-curvature="0"
         id="path4303-6-9"
         d="m 5.77,0 -8.65,5 0,-10 8.65,5 z"
         style="fill:#ffffff;fill-opacity:1;fill-rule:evenodd;stroke:#ffffff;stroke-width:1pt;stroke-opacity:1"
         transform="scale(-0.4,-0.4)" />
    </marker>
    <marker
       inkscape:stockid="TriangleOutM"
       orient="auto"
       refY="0"
       refX="0"
       id="TriangleOutM-7-3"
       style="overflow:visible"
       inkscape:isstock="true">
      <path
         inkscape:connector-curvature="0"
         id="path4312-5-6"
         d="m 5.77,0 -8.65,5 0,-10 8.65,5 z"
         style="fill:#ffffff;fill-opacity:1;fill-rule:evenodd;stroke:#ffffff;stroke-width:1pt;stroke-opacity:1"
         transform="scale(0.4,0.4)" />
    </marker>
    <marker
       inkscape:stockid="TriangleInM"
       orient="auto"
       refY="0"
       refX="0"
       id="TriangleInM-0"
       style="overflow:visible"
       inkscape:isstock="true">
      <path
         inkscape:connector-curvature="0"
         id="path4303-62"
         d="m 5.77,0 -8.65,5 0,-10 8.65,5 z"
         style="fill:#ffffff;fill-opacity:1;fill-rule:evenodd;stroke:#ffffff;stroke-width:1pt;stroke-opacity:1"
         transform="scale(-0.4,-0.4)" />
    </marker>
    <marker
       inkscape:stockid="TriangleOutM"
       orient="auto"
       refY="0"
       refX="0"
       id="TriangleOutM-6"
       style="overflow:visible"
       inkscape:isstock="true">
      <path
         inkscape:connector-curvature="0"
         id="path4312-1"
         d="m 5.77,0 -8.65,5 0,-10 8.65,5 z"
         style="fill:#ffffff;fill-opacity:1;fill-rule:evenodd;stroke:#ffffff;stroke-width:1pt;stroke-opacity:1"
         transform="scale(0.4,0.4)" />
    </marker>
    <marker
       inkscape:stockid="TriangleInM"
       orient="auto"
       refY="0"
       refX="0"
       id="TriangleInM-3-0-8"
       style="overflow:visible"
       inkscape:isstock="true">
      <path
         inkscape:connector-curvature="0"
         id="path4303-6-9-7"
         d="m 5.77,0 -8.65,5 0,-10 8.65,5 z"
         style="fill:#ffffff;fill-opacity:1;fill-rule:evenodd;stroke:#ffffff;stroke-width:1pt;stroke-opacity:1"
         transform="scale(-0.4,-0.4)" />
    </marker>
    <marker
       inkscape:stockid="TriangleOutM"
       orient="auto"
       refY="0"
       refX="0"
       id="TriangleOutM-7-3-9"
       style="overflow:visible"
       inkscape:isstock="true">
      <path
         inkscape:connector-curvature="0"
         id="path4312-5-6-2"
         d="m 5.77,0 -8.65,5 0,-10 8.65,5 z"
         style="fill:#ffffff;fill-opacity:1;fill-rule:evenodd;stroke:#ffffff;stroke-width:1pt;stroke-opacity:1"
         transform="scale(0.4,0.4)" />
    </marker>
  </defs>
  <path
     style="color:#000000;clip-rule:nonzero;display:inline;overflow:visible;visibility:visible;opacity:1;isolation:auto;mix-blend-mode:normal;color-interpolation:sRGB;color-interpolation-filters:linearRGB;solid-color:#000000;solid-opacity:1;fill:#ffffff;fill-opacity:1;fill-rule:nonzero;stroke:none;stroke-width:0.91394931;stroke-linecap:butt;stroke-linejoin:miter;stroke-miterlimit:4;stroke-dasharray:none;stroke-dashoffset:0;stroke-opacity:1;marker:none;color-rendering:auto;image-rendering:auto;shape-rendering:auto;text-rendering:auto;enable-background:accumulate"
     d="M 10.555343,1.604499 C 10.271217,1.6038433 9.9116811,1.7055356 9.71656,1.8305185 9.1847466,2.1711745 8.8923443,2.7572332 8.6333404,3.6520685 8.4337407,4.3416665 8.1876552,5.3596902 8.0708029,5.967513 8.0252638,5.7529635 7.9941956,5.5869118 7.903381,5.2090919 7.5522011,3.7480613 7.4125386,3.2268996 7.206906,2.806588 6.8852126,2.1490499 6.2847444,1.6437474 5.5829138,1.6530513 5.3103785,1.6566608 5.0429981,1.7291887 4.7926825,1.8489349 4.1728819,2.1454404 3.6826756,2.7092908 3.6826755,3.4093068 c 10e-8,0.5250465 0.1904712,0.8381376 0.4453422,1.2004149 0.30478,0.4332204 0.9039461,1.0218356 1.5252133,1.615621 C 5.8873875,6.4491414 6.0988652,6.6369304 6.3045021,6.8196904 5.8669126,6.687329 5.3539591,6.5366702 4.8814162,6.4044842 4.3443618,6.2542521 3.947731,6.1424975 3.7044404,6.0964279 3.4836295,6.0546153 3.26839,6.0321274 3.0565177,6.0344818 2.4267318,6.0414883 1.783262,6.304609 1.4760552,6.8699169 1.1093,7.5448052 1.1034044,8.3122069 1.5614404,8.9543193 1.9213594,9.4588782 2.4564872,9.6251066 3.0230333,9.6323779 3.2411137,9.6351694 3.4316602,9.606262 3.6357975,9.5704318 4.3051738,9.4528981 5.6281998,9.051992 6.4786208,8.7500646 6.1609464,9.0282598 5.8381747,9.3153329 5.4188404,9.7311567 5.1329781,10.014626 4.8546939,10.297883 4.6286091,10.536456 c -0.2260847,0.238573 -0.3695072,0.379556 -0.5072883,0.584302 -0.3186323,0.4735 -0.4915468,1.019641 -0.3549343,1.553675 0.1366125,0.534035 0.5580689,0.931635 1.0681515,1.17865 0.239548,0.116005 0.5318973,0.187513 0.7667922,0.187513 0.090217,0 0.1773226,-0.0056 0.2628523,-0.01507 0.08553,-0.0095 0.1410811,-0.0065 0.298011,-0.06529 0.6043895,-0.22629 0.9436558,-0.731454 1.1719531,-1.31761 0.1635424,-0.419895 0.3532695,-1.140718 0.5290532,-1.86508 0.084104,-0.346571 0.1592375,-0.679788 0.2176484,-0.9676979 0.043269,0.1892492 0.089365,0.3883439 0.1439828,0.6177869 0.1388195,0.58316 0.2946432,1.220047 0.390093,1.570417 0.2419392,0.888091 0.583516,1.574506 1.2523156,1.895216 0.4903624,0.235137 1.0190744,0.177267 1.4833584,-0.05022 0.590326,-0.289257 1.06964,-0.809064 1.084893,-1.485032 0.0137,-0.606748 -0.291412,-1.17433 -0.823716,-1.764626 C 11.255769,10.198593 10.710369,9.6686587 10.217151,9.2138232 10.04883,9.0586 9.9079035,8.9359833 9.7617637,8.8086622 10.620451,9.0910501 11.976036,9.4977804 12.509157,9.6005677 l 0,-0.00167 c 0.182763,0.035271 0.194004,0.020509 0.287966,0.021765 0.09396,0.00125 0.202451,0.00105 0.311404,-0.00167 0.334061,-0.00839 0.626377,-0.06964 0.847155,-0.1774672 0.59417,-0.2901883 0.923837,-0.9791964 0.912449,-1.6574765 -0.0053,-0.3163197 -0.05803,-0.6257935 -0.215974,-0.9091008 -0.157944,-0.283313 -0.419723,-0.5016395 -0.694801,-0.6328604 -0.245839,-0.1172792 -0.555704,-0.2000773 -0.883988,-0.199232 -0.546376,0.0014 -1.14374,0.1576795 -2.23843,0.4654328 -0.343967,0.096701 -0.729437,0.2159791 -1.0547582,0.3247985 0.049958,-0.046351 0.080405,-0.065676 0.1372866,-0.1188696 C 10.166507,6.4813277 10.460254,6.1979667 10.747879,5.913938 11.035504,5.6299093 11.316778,5.3452851 11.543132,5.1086388 11.769487,4.8719926 11.901604,4.7519915 12.047073,4.5343818 12.303106,4.1513613 12.472798,3.7413728 12.457256,3.2971342 12.441714,2.8528954 12.208652,2.434365 11.884674,2.1435974 11.516785,1.813417 11.032332,1.6055999 10.555343,1.604499 Z"
     id="path4386"
     inkscape:connector-curvature="0"
     sodipodi:nodetypes="ssscsscsssscsscsscccssssssccsscsssscsscccccscsccsccsscsss" />
</svg>

<svg width="16" height="16" viewBox="0 0 16 16" fill="none" xmlns="http://www.w3.org/2000/svg">
<path d="M10.5553 1.6045C10.2712 1.60384 9.91167 1.70553 9.71655 1.83051C9.18474 2.17117 8.89234 2.75723 8.63333 3.65207C8.43373 4.34166 8.18765 5.35969 8.0708 5.96751C8.02526 5.75296 7.99419 5.58691 7.90337 5.20909C7.55219 3.74806 7.41253 3.2269 7.2069 2.80658C6.88521 2.14905 6.28474 1.64374 5.58291 1.65305C5.31037 1.65666 5.04299 1.72919 4.79268 1.84893C4.17288 2.14544 3.68267 2.70929 3.68267 3.4093C3.68267 3.93435 3.87314 4.24744 4.12801 4.60972C4.43279 5.04294 5.03196 5.63155 5.65322 6.22534C5.88738 6.44914 6.09886 6.63693 6.3045 6.81969C5.86691 6.68733 5.35395 6.53667 4.88141 6.40448C4.34436 6.25425 3.94772 6.14249 3.70443 6.09642C3.48362 6.05461 3.26838 6.03212 3.05651 6.03448C2.42673 6.04148 1.78326 6.30461 1.47605 6.86991C1.10929 7.5448 1.1034 8.3122 1.56143 8.95432C1.92135 9.45887 2.45648 9.6251 3.02303 9.63237C3.24111 9.63517 3.43165 9.60626 3.63579 9.57043C4.30517 9.45289 5.62819 9.05199 6.47861 8.75006C6.16094 9.02826 5.83817 9.31533 5.41883 9.73115C5.13297 10.0146 4.85469 10.2979 4.6286 10.5365C4.40252 10.775 4.2591 10.916 4.12131 11.1208C3.80268 11.5943 3.62977 12.1404 3.76638 12.6744C3.90299 13.2085 4.32445 13.6061 4.83453 13.8531C5.07408 13.9691 5.36643 14.0406 5.60132 14.0406C5.69154 14.0406 5.77865 14.035 5.86418 14.0255C5.94971 14.016 6.00526 14.019 6.16219 13.9602C6.76658 13.7339 7.10584 13.2288 7.33414 12.6426C7.49768 12.2227 7.68741 11.5019 7.86319 10.7775C7.9473 10.431 8.02243 10.0978 8.08084 9.80984C8.12411 9.99909 8.17021 10.1982 8.22482 10.4276C8.36364 11.0108 8.51947 11.6477 8.61492 11.998C8.85686 12.8861 9.19843 13.5726 9.86723 13.8933C10.3576 14.1284 10.8863 14.0705 11.3506 13.843C11.9409 13.5538 12.4202 13.034 12.4355 12.358C12.4492 11.7513 12.1441 11.1837 11.6118 10.5934C11.2558 10.1986 10.7104 9.66866 10.2171 9.21382C10.0488 9.0586 9.9079 8.93598 9.76176 8.80866C10.6204 9.09105 11.976 9.49778 12.5092 9.60056V9.59889C12.6919 9.63417 12.7032 9.6194 12.7971 9.62066C12.8911 9.62191 12.9996 9.62171 13.1085 9.61899C13.4426 9.6106 13.7349 9.54935 13.9557 9.44152C14.5498 9.15133 14.8795 8.46233 14.8681 7.78405C14.8628 7.46773 14.8101 7.15825 14.6522 6.87494C14.4942 6.59163 14.2324 6.3733 13.9573 6.24208C13.7115 6.1248 13.4016 6.04201 13.0734 6.04285C12.527 6.04425 11.9296 6.20053 10.8349 6.50828C10.491 6.60499 10.1055 6.72426 9.78017 6.83308C9.83013 6.78673 9.86058 6.76741 9.91746 6.71421C10.1665 6.48132 10.4602 6.19796 10.7479 5.91393C11.0355 5.62991 11.3168 5.34528 11.5431 5.10864C11.7695 4.87199 11.9016 4.75199 12.0471 4.53438C12.3031 4.15136 12.4728 3.74137 12.4572 3.29713C12.4417 2.85289 12.2086 2.43436 11.8847 2.14359C11.5168 1.81341 11.0323 1.6056 10.5553 1.6045Z" fill="white"/>
</svg>
